images/logo.svg

<svg width="165" height="23" viewBox="0 0 165 23" fill="none" xmlns="http://www.w3.org/2000/svg">
<path d="M127 7C127 5.34315 128.343 4 130 4H162C163.657 4 165 5.34315 165 7V16C165 17.6569 163.657 19 162 19H130C128.343 19 127 17.6569 127 16V7Z" fill="white"/>
<path d="M131.553 16.1108C131.272 16.1108 131.03 16.0114 130.829 15.8125C130.63 15.6108 130.53 15.3693 130.53 15.0881C130.53 14.8097 130.63 14.571 130.829 14.3722C131.03 14.1733 131.272 14.0739 131.553 14.0739C131.826 14.0739 132.064 14.1733 132.269 14.3722C132.474 14.571 132.576 14.8097 132.576 15.0881C132.576 15.2756 132.528 15.4474 132.431 15.6037C132.337 15.7571 132.214 15.8807 132.06 15.9744C131.907 16.0653 131.738 16.1108 131.553 16.1108Z" fill="#2FABEB"/>
<path d="M141.301 10.3281H139.434C139.4 10.0866 139.33 9.87216 139.225 9.68466C139.12 9.49432 138.985 9.33239 138.82 9.19886C138.656 9.06534 138.465 8.96307 138.249 8.89205C138.036 8.82102 137.805 8.78551 137.555 8.78551C137.103 8.78551 136.71 8.89773 136.374 9.12216C136.039 9.34375 135.779 9.66761 135.595 10.0938C135.41 10.517 135.318 11.0312 135.318 11.6364C135.318 12.2585 135.41 12.7812 135.595 13.2045C135.782 13.6278 136.044 13.9474 136.379 14.1634C136.714 14.3793 137.102 14.4872 137.542 14.4872C137.789 14.4872 138.018 14.4545 138.228 14.3892C138.441 14.3239 138.63 14.2287 138.795 14.1037C138.96 13.9759 139.096 13.821 139.204 13.6392C139.315 13.4574 139.392 13.25 139.434 13.017L141.301 13.0256C141.252 13.4261 141.132 13.8125 140.938 14.1847C140.748 14.554 140.491 14.8849 140.167 15.1776C139.846 15.4673 139.463 15.6974 139.017 15.8679C138.573 16.0355 138.072 16.1193 137.512 16.1193C136.734 16.1193 136.038 15.9432 135.424 15.5909C134.813 15.2386 134.33 14.7287 133.975 14.0611C133.623 13.3935 133.447 12.5852 133.447 11.6364C133.447 10.6847 133.626 9.875 133.984 9.20739C134.342 8.53977 134.828 8.03125 135.441 7.68182C136.055 7.32955 136.745 7.15341 137.512 7.15341C138.018 7.15341 138.487 7.22443 138.919 7.36648C139.353 7.50852 139.738 7.71591 140.073 7.98864C140.409 8.25852 140.681 8.58949 140.892 8.98153C141.105 9.37358 141.241 9.82244 141.301 10.3281Z" fill="#2FABEB"/>
<path d="M150.144 11.6364C150.144 12.5881 149.963 13.3977 149.602 14.0653C149.244 14.733 148.756 15.2429 148.137 15.5952C147.52 15.9446 146.827 16.1193 146.057 16.1193C145.281 16.1193 144.585 15.9432 143.969 15.5909C143.352 15.2386 142.865 14.7287 142.507 14.0611C142.149 13.3935 141.97 12.5852 141.97 11.6364C141.97 10.6847 142.149 9.875 142.507 9.20739C142.865 8.53977 143.352 8.03125 143.969 7.68182C144.585 7.32955 145.281 7.15341 146.057 7.15341C146.827 7.15341 147.52 7.32955 148.137 7.68182C148.756 8.03125 149.244 8.53977 149.602 9.20739C149.963 9.875 150.144 10.6847 150.144 11.6364ZM148.273 11.6364C148.273 11.0199 148.181 10.5 147.996 10.0767C147.814 9.65341 147.557 9.33239 147.225 9.11364C146.892 8.89489 146.503 8.78551 146.057 8.78551C145.611 8.78551 145.222 8.89489 144.889 9.11364C144.557 9.33239 144.298 9.65341 144.114 10.0767C143.932 10.5 143.841 11.0199 143.841 11.6364C143.841 12.2528 143.932 12.7727 144.114 13.196C144.298 13.6193 144.557 13.9403 144.889 14.1591C145.222 14.3778 145.611 14.4872 146.057 14.4872C146.503 14.4872 146.892 14.3778 147.225 14.1591C147.557 13.9403 147.814 13.6193 147.996 13.196C148.181 12.7727 148.273 12.2528 148.273 11.6364Z" fill="#2FABEB"/>
<path d="M151.01 7.27273H153.286L155.689 13.1364H155.792L158.195 7.27273H160.471V16H158.681V10.3196H158.608L156.35 15.9574H155.131L152.873 10.2983H152.8V16H151.01V7.27273Z" fill="#2FABEB"/>
<path fill-rule="evenodd" clip-rule="evenodd" d="M72.5503 7.3676C73.8965 5.15047 76.3866 3.78455 79.1137 3.78455C81.8681 3.78455 83.8092 5.04567 85.0054 6.7203C86.1497 8.3224 86.5849 10.249 86.5849 11.7377C86.5849 13.2293 86.1466 15.3294 84.6922 17.09C83.1837 18.916 80.7499 20.1729 77.1857 20.1729C74.3436 20.1729 71.1645 19.1871 68.4503 18.0544C66.0605 17.0572 63.8948 15.8876 62.4214 14.9852V19.0026H58.8701V3.99072H64.7484C65.9288 3.99072 66.944 4.21067 67.7939 4.65058C68.6505 5.09049 69.3081 5.69536 69.7668 6.4652C70.2255 7.22817 70.4548 8.10111 70.4548 9.08403C70.4548 10.0532 70.2255 10.8987 69.7668 11.6204C69.3081 12.3421 68.6505 12.9057 67.7939 13.3113C67.5217 13.439 67.2325 13.5462 66.9264 13.633C67.797 14.0754 68.7523 14.5244 69.7497 14.9406C72.3296 16.0172 75.0149 16.7988 77.1857 16.7988C79.8876 16.7988 81.3099 15.8866 82.0909 14.9411C82.9261 13.9301 83.2108 12.6561 83.2108 11.7377C83.2108 10.8164 82.923 9.60988 82.2598 8.68144C81.6484 7.82552 80.6975 7 79.1137 7C77.5028 7 76.1369 7.96173 75.4344 9.11866C75.1523 9.58341 74.9568 10.1402 74.9122 10.7737C74.8515 11.6363 74.9117 13.0742 75.73 15.0881C74.5955 14.9384 73.3727 14.6324 72.1306 14.224C71.9392 13.8089 71.6817 13.037 71.5608 11.7377C71.4134 10.1525 71.7715 8.65042 72.5503 7.3676ZM62.4214 11.1152V6.78482H64.7484C65.2476 6.78482 65.6523 6.8948 65.9626 7.11475C66.2728 7.32784 66.4988 7.60965 66.6404 7.9602C66.7888 8.31076 66.863 8.69224 66.863 9.10465C66.863 9.48957 66.7888 9.83669 66.6404 10.146C66.4988 10.4484 66.2728 10.6856 65.9626 10.8574C65.6523 11.0293 65.2476 11.1152 64.7484 11.1152H62.4214Z" fill="white"/>
<path fill-rule="evenodd" clip-rule="evenodd" d="M51.8784 13.9093H49.5513V19.0026H46V3.99072H51.8784C53.0588 3.99072 54.0739 4.21067 54.9238 4.65058C55.7804 5.09049 56.4381 5.69536 56.8967 6.4652C57.3554 7.22817 57.5847 8.10111 57.5847 9.08403C57.5847 10.0532 57.3554 10.8987 56.8967 11.6204C56.4381 12.3421 55.7804 12.9057 54.9238 13.3113C54.0739 13.7099 53.0588 13.9093 51.8784 13.9093ZM49.5513 6.78482V11.1152H51.8784C52.3775 11.1152 52.7822 11.0293 53.0925 10.8574C53.4028 10.6856 53.6287 10.4484 53.7704 10.146C53.9188 9.83669 53.993 9.48957 53.993 9.10465C53.993 8.69224 53.9188 8.31076 53.7704 7.9602C53.6287 7.60965 53.4028 7.32784 53.0925 7.11475C52.7822 6.8948 52.3775 6.78482 51.8784 6.78482H49.5513Z" fill="white"/>
<path fill-rule="evenodd" clip-rule="evenodd" d="M91.8451 3.99074V10.6102L93.0794 8.70257L96.2564 3.99074H100.637L95.6655 10.6203L100.287 18.4126L105.488 3.99074H108.837L114.28 19.0026H110.455L109.603 16.1982H104.739L103.889 19.0026H96.4385L93.2984 13.4198L91.8451 15.0398V19.0026H88.2938V3.99074H91.8451ZM105.585 13.4041L107.168 8.17965L108.755 13.4041H105.585Z" fill="white"/>
<path d="M119.568 19.0026V6.78485H124V3.99074H111.687V6.78485H116.017V19.0026H119.568Z" fill="white"/>
<path d="M20 5.04054V6.08021C20 6.48473 20.4553 6.7218 20.7867 6.48983L24.4148 3.95016C24.6992 3.75111 24.6992 3.32998 24.4148 3.13093L20.7867 0.591254C20.4553 0.359282 20 0.596358 20 1.00087V2.04054H14.3847C13.3986 2.04054 12.4583 2.45653 11.7949 3.18619L8.2828 7.04955C8.01307 7.34626 7.57249 7.56524 6.99899 7.63379C5.671 7.79252 4.00995 8.18702 2.63541 9.04072C1.21106 9.92534 0 11.3826 0 13.5405C0 15.6136 0.58323 17.0919 1.63406 18.0166C2.65073 18.9113 3.8307 19.0405 4.5 19.0405H5.4532C6.32807 20.8789 8.34615 22.0405 10.5 22.0405C12.6539 22.0405 14.6719 20.8789 15.5468 19.0405H16.6528L15.1996 17.9354C14.9335 17.733 14.9335 17.3481 15.1996 17.1457L16.6528 16.0405H13.1848L12.9791 17.2985C12.8415 18.1402 11.919 19.0405 10.5 19.0405C9.08097 19.0405 8.15845 18.1402 8.02086 17.2985L7.81521 16.0405H4.5C4.1693 16.0405 3.84927 15.9698 3.61594 15.7645C3.41677 15.5892 3 15.0675 3 13.5405C3 12.6961 3.41185 12.09 4.21821 11.5892C5.07438 11.0574 6.25183 10.7445 7.35503 10.6126C8.46006 10.4805 9.63522 10.0217 10.5026 9.06757L14.0148 5.20421C14.1095 5.09997 14.2439 5.04054 14.3847 5.04054H20Z" fill="white"/>
<path d="M23.9624 5.04053H22.8572L24.4148 3.95016C24.6992 3.75111 24.6992 3.32998 24.4148 3.13093L22.8572 2.04053H23.9624C24.9675 2.04053 25.9435 2.37699 26.735 2.99612L32.4198 7.3556L32.4268 7.36105C32.6014 7.49826 32.6838 7.53873 32.731 7.55774C32.7791 7.5771 32.8682 7.60533 33.0935 7.62881C33.2512 7.64526 33.4256 7.6616 33.6226 7.68004L33.6966 7.68696C34.9071 7.80007 36.8483 7.98145 38.5021 8.66801C39.3654 9.02636 40.2456 9.5585 40.9148 10.3753C41.6059 11.2189 42 12.2802 42 13.5405C42 15.9775 41.0504 17.4764 39.8321 18.2886C39.2667 18.6655 38.7081 18.8503 38.2942 18.9423C38.0853 18.9887 37.9062 19.0131 37.7712 19.026L37.5 19.0405H36.5468C35.672 20.8789 33.6539 22.0405 31.5 22.0405C29.3462 22.0405 27.3281 20.8789 26.4532 19.0405H20V20.5339C20 20.7989 19.7985 20.9904 19.5623 21.032C19.4649 21.0492 19.3615 21.0409 19.264 21.0018C19.2197 20.984 19.1766 20.9598 19.1357 20.9288L15.1996 17.9354C14.9335 17.733 14.9335 17.3481 15.1996 17.1457L19.1357 14.1523C19.2228 14.0861 19.3204 14.0511 19.4177 14.0426C19.471 14.0379 19.5242 14.0412 19.5755 14.0515C19.806 14.0979 20 14.2871 20 14.5472V16.0405H28.8152L29.0209 17.2985C29.1585 18.1402 30.081 19.0405 31.5 19.0405C32.9191 19.0405 33.8416 18.1402 33.9792 17.2985L34.1848 16.0405H37.4745L37.4867 16.0395C37.5157 16.0367 37.571 16.0298 37.6434 16.0137C37.792 15.9807 37.9834 15.9155 38.168 15.7925C38.4497 15.6047 39 15.1036 39 13.5405C39 12.9459 38.8289 12.563 38.5941 12.2765C38.3374 11.9631 37.9311 11.6792 37.3519 11.4387C36.155 10.9419 34.6337 10.7878 33.3429 10.667L33.3372 10.6664C33.1461 10.6485 32.9572 10.6309 32.7824 10.6126C32.3957 10.5723 32.0078 10.5005 31.6108 10.3408C31.2162 10.1819 30.8877 9.96636 30.5807 9.72578L24.8961 5.3665L24.8892 5.36105C24.6249 5.1534 24.2985 5.04053 23.9624 5.04053Z" fill="#2FABEB"/>
</svg>

<svg width="165" height="23" fill="none" xmlns="http://www.w3.org/2000/svg"><path d="M127 7a3 3 0 013-3h32a3 3 0 013 3v9a3 3 0 01-3 3h-32a3 3 0 01-3-3V7z" fill="#fff"/><path d="M131.553 16.11a.994.994 0 01-.724-.297.996.996 0 01-.299-.725c0-.278.1-.517.299-.716a.994.994 0 01.724-.298c.273 0 .511.1.716.298a.961.961 0 01.307.716c0 .188-.048.36-.145.516a1.1 1.1 0 01-.371.37.974.974 0 01-.507.137zm9.748-5.782h-1.867a1.826 1.826 0 00-.209-.643 1.632 1.632 0 00-.405-.486 1.772 1.772 0 00-.571-.307 2.18 2.18 0 00-.694-.106c-.452 0-.845.112-1.181.336-.335.222-.595.546-.779.972-.185.423-.277.937-.277 1.542 0 .623.092 1.145.277 1.569.187.423.449.742.784.958a2.1 2.1 0 001.163.324c.247 0 .476-.033.686-.098a1.642 1.642 0 00.976-.75c.111-.182.188-.389.23-.622l1.867.009a3.475 3.475 0 01-1.134 2.152 3.63 3.63 0 01-1.15.69 4.235 4.235 0 01-1.505.251c-.778 0-1.474-.176-2.088-.528-.611-.352-1.094-.862-1.449-1.53-.352-.668-.528-1.476-.528-2.425 0-.951.179-1.761.537-2.429.358-.667.844-1.176 1.457-1.525.614-.352 1.304-.529 2.071-.529.506 0 .975.071 1.407.213.434.143.819.35 1.154.623.336.27.608.6.819.993.213.392.349.84.409 1.346zm8.843 1.308c0 .952-.181 1.762-.542 2.43a3.753 3.753 0 01-1.465 1.53c-.617.349-1.31.523-2.08.523-.776 0-1.472-.176-2.088-.528-.617-.352-1.104-.862-1.462-1.53-.358-.668-.537-1.476-.537-2.425 0-.951.179-1.761.537-2.429.358-.667.845-1.176 1.462-1.525.616-.352 1.312-.529 2.088-.529.77 0 1.463.177 2.08.529.619.35 1.107.858 1.465 1.525.361.668.542 1.478.542 2.43zm-1.871 0c0-.616-.092-1.136-.277-1.56-.182-.423-.439-.744-.771-.962a2.078 2.078 0 00-1.168-.328c-.446 0-.835.109-1.168.328-.332.218-.591.54-.775.963-.182.423-.273.943-.273 1.56 0 .616.091 1.136.273 1.559.184.423.443.744.775.963.333.219.722.328 1.168.328.446 0 .835-.11 1.168-.328.332-.219.589-.54.771-.963.185-.423.277-.943.277-1.56zm2.737-4.363h2.276l2.403 5.863h.103l2.403-5.863h2.276V16h-1.79v-5.68h-.073l-2.258 5.637h-1.219l-2.258-5.659h-.073V16h-1.79V7.273z" fill="#2FABEB"/><path fill-rule="evenodd" clip-rule="evenodd" d="M72.55 7.368c1.347-2.218 3.837-3.583 6.564-3.583 2.754 0 4.695 1.26 5.891 2.935 1.145 1.602 1.58 3.529 1.58 5.018 0 1.491-.438 3.591-1.893 5.352-1.508 1.826-3.942 3.083-7.506 3.083-2.842 0-6.022-.986-8.736-2.119a45.698 45.698 0 01-6.029-3.069v4.018h-3.55V3.99h5.877c1.18 0 2.196.22 3.046.66.856.44 1.514 1.044 1.973 1.814.459.763.688 1.636.688 2.619 0 .97-.23 1.815-.688 2.536-.459.722-1.117 1.286-1.973 1.691a5.7 5.7 0 01-.868.322c.871.442 1.826.891 2.824 1.308 2.58 1.076 5.265 1.858 7.436 1.858 2.702 0 4.124-.912 4.905-1.858.835-1.01 1.12-2.285 1.12-3.203 0-.922-.288-2.128-.951-3.057C81.648 7.826 80.697 7 79.114 7c-1.611 0-2.977.962-3.68 2.119a3.668 3.668 0 00-.522 1.655c-.06.862 0 2.3.818 4.314-1.135-.15-2.357-.456-3.6-.864-.19-.415-.448-1.187-.57-2.486a7.079 7.079 0 01.99-4.37zm-10.129 3.747v-4.33h2.327c.5 0 .904.11 1.215.33.31.213.536.495.677.845.149.35.223.732.223 1.145 0 .385-.074.732-.223 1.041a1.55 1.55 0 01-.677.711c-.31.172-.715.258-1.215.258h-2.327zM51.878 13.91h-2.327v5.093H46V3.99h5.878c1.18 0 2.196.22 3.046.66.856.44 1.514 1.044 1.973 1.814.458.763.688 1.636.688 2.619 0 .97-.23 1.815-.688 2.536-.459.722-1.117 1.286-1.973 1.691-.85.399-1.865.598-3.046.598zm-2.327-7.125v4.33h2.327c.5 0 .904-.086 1.215-.258a1.55 1.55 0 00.677-.711c.149-.31.223-.656.223-1.041 0-.413-.074-.794-.223-1.145a1.84 1.84 0 00-.678-.845c-.31-.22-.715-.33-1.214-.33h-2.327zM91.845 3.99v6.62l1.234-1.907 3.177-4.712h4.381l-4.972 6.63 4.622 7.792 5.201-14.422h3.349l5.443 15.012h-3.825l-.852-2.805h-4.864l-.85 2.805h-7.45l-3.14-5.583-1.454 1.62v3.963h-3.551V3.99h3.551zm13.74 9.414l1.583-5.224 1.587 5.224h-3.17z" fill="#fff"/><path d="M119.568 19.003V6.785H124V3.99h-12.313v2.794h4.33v12.218h3.551zM20 5.04v1.04a.5.5 0 00.787.41l3.628-2.54a.5.5 0 000-.82L20.787.592a.5.5 0 00-.787.41v1.04h-5.615a3.5 3.5 0 00-2.59 1.145L8.283 7.05c-.27.296-.71.515-1.284.584-1.328.159-2.989.553-4.364 1.407C1.211 9.925 0 11.383 0 13.54c0 2.073.583 3.55 1.634 4.476 1.017.894 2.197 1.024 2.866 1.024h.953c.875 1.838 2.893 3 5.047 3s4.172-1.162 5.047-3h1.106L15.2 17.934a.49.49 0 010-.79l1.453-1.104h-3.468l-.206 1.258c-.137.841-1.06 1.742-2.479 1.742s-2.342-.9-2.48-1.742l-.205-1.258H4.5c-.33 0-.65-.071-.884-.277-.2-.175-.616-.696-.616-2.223 0-.845.412-1.451 1.218-1.952.856-.532 2.034-.845 3.137-.976 1.105-.133 2.28-.591 3.148-1.545l3.512-3.864a.5.5 0 01.37-.163H20z" fill="#fff"/><path d="M23.962 5.04h-1.105l1.558-1.09a.5.5 0 000-.82l-1.558-1.09h1.105a4.5 4.5 0 012.773.956l5.685 4.36.007.005c.174.137.257.178.304.197.048.02.137.047.362.07.158.017.333.034.53.052l.074.007c1.21.113 3.151.294 4.805.981.863.358 1.744.89 2.413 1.707.69.844 1.085 1.905 1.085 3.165 0 2.438-.95 3.936-2.168 4.749a4.568 4.568 0 01-2.06.737l-.272.015h-.953c-.875 1.838-2.893 3-5.047 3s-4.172-1.162-5.047-3H20v1.493a.512.512 0 01-.438.498.545.545 0 01-.426-.103L15.2 17.935a.49.49 0 010-.79l3.936-2.993a.541.541 0 01.44-.1.51.51 0 01.424.495v1.494h8.815l.206 1.258c.137.841 1.06 1.742 2.479 1.742 1.42 0 2.342-.9 2.48-1.742l.205-1.258h3.29l.012-.002a1.568 1.568 0 00.681-.247c.282-.187.832-.688.832-2.252 0-.594-.171-.977-.406-1.263-.257-.314-.663-.598-1.242-.838-1.197-.497-2.718-.651-4.01-.772h-.005l-.555-.054a4.25 4.25 0 01-1.171-.272 4.19 4.19 0 01-1.03-.615l-5.685-4.36-.007-.005a1.5 1.5 0 00-.927-.32z" fill="#2FABEB"/></svg>
